X:1
T:Blair Atholl
M:C|
L:1/8
K:ADor
E2|"Am"A2 AB AGEG|ABcd edcB|A2 AG AGEG|"G"G2 BG dGBG|!
"Am"A2 AB AGEG|ABcd ecae|"G"gedB GABd|"Am"c2A2A2:||!
e^g|"Am"a2 ab agec|ABcd ecBA|"G"g2 ga gedB|GABc dB G2|!
"Am"a2 ab agec|ABcd ecae|"G"gedB GABd|"Am"c2A2A2:||!
